X: 34429
T: Rick's Rambles
R: hornpipe
M: 4/4
K: Gmajor
|:c/B/A|G3A BDEF|GBAG FGAc|dgfe dcBc|(3dcd ed cAFA|
G3A GBdB|cBAG FGAc|dgfe dcEF|AGGA G2:|
|:Bc|dcBc edBG|(3ABA EF AGFE|DddB cAEF|GB (3AGF GDBD|
GD D2 GBdB|cBAG FGAc|dgfe dcEF|AGGA G2:|

